icon/lg/skype.svg

<?xml version="1.0" encoding="UTF-8"?>
<svg viewBox="0 0 256 256" version="1.1" xmlns="http://www.w3.org/2000/svg" xmlns:xlink="http://www.w3.org/1999/xlink" preserveAspectRatio="xMidYMid" height="1em" width="1em">
  <defs>
    <linearGradient x1="42.1728972%" y1="0.58411215%" x2="57.8271028%" y2="99.4158879%" id="skypeLinearGradient-1">
      <stop stop-color="#00B7F0" offset="1%"/>
      <stop stop-color="#009DE5" offset="34%"/>
      <stop stop-color="#0082D9" offset="76%"/>
      <stop stop-color="#0078D4" offset="100%"/>
    </linearGradient>
    <linearGradient x1="6.6588785%" y1="75%" x2="93.3411215%" y2="25%" id="skypeLinearGradient-2">
      <stop stop-color="#0078D4" offset="0%"/>
      <stop stop-color="#007AD5" offset="37%"/>
      <stop stop-color="#0082D9" offset="57%"/>
      <stop stop-color="#0090DF" offset="74%"/>
      <stop stop-color="#00A3E7" offset="88%"/>
      <stop stop-color="#00BCF2" offset="100%"/>
    </linearGradient>
    <path d="M179.902617,104.187363 C166.333854,104.184916 153.013747,107.828807 141.335714,114.737849 C160.870774,81.7960553 152.835026,39.4644538 122.587294,15.9728569 C92.3395629,-7.51873994 49.3362186,-4.82613708 22.2550408,22.2550408 C-4.82613708,49.3362186 -7.51873994,92.3395629 15.9728569,122.587294 C39.4644538,152.835026 81.7960553,160.870774 114.737849,141.335714 C97.2473348,170.978399 101.894722,208.680121 126.060225,233.187984 C150.225728,257.695847 187.858345,262.873123 217.744136,245.801321 C247.629927,228.72952 262.285538,193.683391 253.449433,160.418844 C244.613329,127.154296 214.498053,104.000716 180.079936,104.010044 L179.902617,104.187363 Z" id="path-3"/>
    <radialGradient cx="48.5394537%" cy="50%" fx="48.5394537%" fy="50%" r="50.0213274%" id="radialGradient-5">
      <stop stop-color="#000000" offset="0%"/>
      <stop stop-color="#000000" stop-opacity="0" offset="100%"/>
    </radialGradient>
    <linearGradient x1="30.4363905%" y1="16.1242604%" x2="80.4363905%" y2="102.736686%" id="skypeLinearGradient-6">
      <stop stop-color="#00B7F0" offset="0%"/>
      <stop stop-color="#007CC1" offset="100%"/>
    </linearGradient>
    <linearGradient x1="45.6360947%" y1="99.8150888%" x2="54.3639053%" y2="0.184911243%" id="skypeLinearGradient-7">
      <stop stop-color="#0078D4" offset="0%"/>
      <stop stop-color="#00BCF2" offset="100%"/>
    </linearGradient>
  </defs>
  <g>
    <path d="M246.663256,143.906841 C247.408519,138.678989 247.793618,133.4061 247.81583,128.125441 C247.81583,96.3345483 235.186947,65.8457277 212.707391,43.3661718 C190.227835,20.8866159 159.739015,8.25773292 127.948122,8.25773292 C122.667463,8.27994544 117.394574,8.6650441 112.166723,9.41030703 C82.6200845,-6.51395807 46.1254758,-1.16479484 22.391681,22.569 C-1.34211393,46.3027949 -6.69127717,82.7974036 9.23298794,112.344042 C8.487725,117.571893 8.10262634,122.844783 8.08041382,128.125441 C8.08041382,194.326548 61.7470148,247.993149 127.948122,247.993149 C133.228781,247.970937 138.50167,247.585838 143.729521,246.840575 C173.276159,262.76484 209.770768,257.415677 233.504563,233.681882 C257.238358,209.948087 262.587521,173.453479 246.663256,143.906841 L246.663256,143.906841 Z" fill="#FFFFFF"/>
    <circle fill="url(#skypeLinearGradient-1)" cx="75.9936272" cy="76.1709463" r="75.8925726"/>
    <circle fill="url(#skypeLinearGradient-2)" cx="179.902617" cy="180.079936" r="75.8925726"/>
    <g>
      <mask id="mask-4" fill="white">
        <use xlink:href="#path-3"/>
      </mask>
      <circle fill="url(#radialGradient-5)" mask="url(#mask-4)" cx="125.547018" cy="133.577871" r="141.811601"/>
    </g>
    <circle fill="url(#skypeLinearGradient-6)" cx="127.948122" cy="128.125441" r="119.867708"/>
    <circle fill="url(#skypeLinearGradient-7)" cx="127.948122" cy="128.125441" r="119.867708"/>
    <path d="M84.2389651,113.407956 C81.4198309,108.121961 80.0149427,102.196997 80.1606259,96.208004 C79.9793612,88.6383955 82.5641212,81.2623728 87.4307088,75.4616699 C92.5510415,69.6847238 99.0911769,65.3450078 106.403852,62.8720142 C114.347719,60.0689731 122.716092,58.6592472 131.139866,58.7050154 C136.661475,58.666415 142.176922,59.0815562 147.630542,59.9462491 C151.518445,60.5979082 155.344392,61.5766388 159.067623,62.8720142 C162.44932,64.0399028 165.493377,66.0185402 167.933578,68.6348847 C169.796492,70.7340496 170.808294,73.4532689 170.770683,76.2596058 C170.908572,79.2312306 169.855513,82.13512 167.844918,84.3276246 C165.965588,86.3279493 163.318226,87.425636 160.574835,87.3420493 C158.676468,87.3124666 156.804825,86.8898374 155.077944,86.1008156 C150.901733,84.2510056 146.607029,82.6812173 142.222309,81.4018596 C138.143019,80.3344704 133.937402,79.8274102 129.721313,79.8946473 C124.257649,79.7116571 118.852,81.0630695 114.117233,83.7956674 C110.057915,86.2624792 107.675793,90.7544823 107.911064,95.4987276 C107.879064,98.5282638 109.023195,101.452153 111.102808,103.655406 C113.646916,106.279834 116.652288,108.413648 119.968763,109.950234 C123.603804,111.723425 128.834717,114.117233 136.282119,117.131657 L138.587268,118.018253 C145.620163,120.698533 152.363211,124.08491 158.712985,128.125441 C163.772467,131.40473 168.041922,135.765025 171.213981,140.892416 C174.332603,146.270921 175.897864,152.4092 175.735618,158.624325 C175.986624,166.237862 173.779432,173.729877 169.44079,179.991276 C164.989159,186.014019 158.801686,190.530874 151.708881,192.93557 C143.32052,195.926972 134.45833,197.368956 125.554314,197.191229 C113.380226,197.595162 101.268093,195.293857 90.0904952,190.453103 C87.2268341,189.164469 84.7061412,187.220802 82.7317528,184.778892 C81.1779737,182.477781 80.3728958,179.752902 80.4266046,176.976852 C80.2295728,174.015021 81.3679205,171.120365 83.5296887,169.086152 C85.7461412,167.124501 88.6412915,166.106426 91.5977075,166.249046 C94.9033394,166.296019 98.1521245,167.115805 101.084279,168.642854 C104.719321,170.416045 107.556426,171.834598 109.950234,172.721193 C112.323534,173.723825 114.787804,174.495765 117.308976,175.026342 C120.420101,175.733814 123.605556,176.061291 126.795548,176.001597 C132.442297,176.417707 138.064485,174.918457 142.754266,171.745938 C146.34954,168.993187 148.369663,164.65489 148.162499,160.131538 C148.247704,156.8484 147.037482,153.663605 144.793436,151.265583 C141.902165,148.316841 138.547898,145.861039 134.863567,143.9955 C130.519249,141.690352 124.313081,138.941906 116.422381,135.572843 C109.33281,132.749237 102.533387,129.245604 96.1193445,125.111016 C91.3227449,121.920256 87.1423011,118.383794 84.2389651,113.407956 Z" fill="#FFFFFF"/>
  </g>
</svg>

<svg width="256" height="256" xmlns="http://www.w3.org/2000/svg" xmlns:xlink="http://www.w3.org/1999/xlink" preserveAspectRatio="xMidYMid"><defs><linearGradient x1="42.173%" y1=".584%" x2="57.827%" y2="99.416%" id="a"><stop stop-color="#00B7F0" offset="1%"/><stop stop-color="#009DE5" offset="34%"/><stop stop-color="#0082D9" offset="76%"/><stop stop-color="#0078D4" offset="100%"/></linearGradient><linearGradient x1="6.659%" y1="75%" x2="93.341%" y2="25%" id="b"><stop stop-color="#0078D4" offset="0%"/><stop stop-color="#007AD5" offset="37%"/><stop stop-color="#0082D9" offset="57%"/><stop stop-color="#0090DF" offset="74%"/><stop stop-color="#00A3E7" offset="88%"/><stop stop-color="#00BCF2" offset="100%"/></linearGradient><linearGradient x1="30.436%" y1="16.124%" x2="80.436%" y2="102.737%" id="f"><stop stop-color="#00B7F0" offset="0%"/><stop stop-color="#007CC1" offset="100%"/></linearGradient><linearGradient x1="45.636%" y1="99.815%" x2="54.364%" y2=".185%" id="g"><stop stop-color="#0078D4" offset="0%"/><stop stop-color="#00BCF2" offset="100%"/></linearGradient><radialGradient cx="48.539%" cy="50%" fx="48.539%" fy="50%" r="50.021%" id="d"><stop offset="0%"/><stop stop-opacity="0" offset="100%"/></radialGradient><path d="M179.903 104.187a75.715 75.715 0 0 0-38.567 10.55c19.535-32.94 11.499-75.273-18.749-98.764C92.34-7.52 49.337-4.827 22.255 22.255-4.826 49.336-7.519 92.34 15.973 122.587c23.491 30.248 65.823 38.284 98.765 18.749-17.49 29.642-12.843 67.344 11.322 91.852 24.166 24.508 61.798 29.685 91.684 12.613 29.886-17.071 44.542-52.118 35.705-85.382-8.836-33.265-38.95-56.418-73.37-56.409l-.176.177Z" id="c"/></defs><path d="M246.663 143.907c.746-5.228 1.13-10.5 1.153-15.782A119.868 119.868 0 0 0 127.948 8.258c-5.28.022-10.553.407-15.781 1.152C82.62-6.514 46.125-1.165 22.392 22.57-1.342 46.303-6.691 82.797 9.233 112.344c-.745 5.228-1.13 10.5-1.153 15.781 0 66.202 53.667 119.868 119.868 119.868 5.28-.022 10.554-.407 15.782-1.152 29.546 15.924 66.04 10.575 89.775-13.16 23.733-23.733 29.083-60.228 13.158-89.774Z" fill="#FFF"/><circle fill="url(#a)" cx="75.994" cy="76.171" r="75.893"/><circle fill="url(#b)" cx="179.903" cy="180.08" r="75.893"/><mask id="e" fill="#fff"><use xlink:href="#c"/></mask><circle fill="url(#d)" mask="url(#e)" cx="125.547" cy="133.578" r="141.812"/><circle fill="url(#f)" cx="127.948" cy="128.125" r="119.868"/><circle fill="url(#g)" cx="127.948" cy="128.125" r="119.868"/><path d="M84.239 113.408a34.755 34.755 0 0 1-4.078-17.2 31.12 31.12 0 0 1 7.27-20.746 44.33 44.33 0 0 1 18.973-12.59 73.144 73.144 0 0 1 24.736-4.167c5.521-.039 11.037.377 16.49 1.241a70.041 70.041 0 0 1 11.438 2.926 21.899 21.899 0 0 1 8.866 5.763 11.26 11.26 0 0 1 2.837 7.625 11.171 11.171 0 0 1-2.926 8.068 9.575 9.575 0 0 1-7.27 3.014 13.742 13.742 0 0 1-5.497-1.241c-4.176-1.85-8.471-3.42-12.856-4.7a46.458 46.458 0 0 0-12.5-1.506 29.258 29.258 0 0 0-15.605 3.9 12.944 12.944 0 0 0-6.206 11.704 11.703 11.703 0 0 0 3.192 8.156 29.79 29.79 0 0 0 8.866 6.295c3.635 1.773 8.866 4.167 16.313 7.182l2.305.886a111.356 111.356 0 0 1 20.126 10.107 40.783 40.783 0 0 1 12.501 12.767 33.602 33.602 0 0 1 4.522 17.732 35.464 35.464 0 0 1-6.295 21.367 36.705 36.705 0 0 1-17.732 12.945 73.499 73.499 0 0 1-26.155 4.255 82.365 82.365 0 0 1-35.464-6.738 20.037 20.037 0 0 1-7.358-5.674 13.476 13.476 0 0 1-2.305-7.802 9.93 9.93 0 0 1 3.103-7.89 11.348 11.348 0 0 1 8.068-2.838 21.19 21.19 0 0 1 9.486 2.394c3.635 1.773 6.472 3.192 8.866 4.078a40.163 40.163 0 0 0 7.359 2.305 39.454 39.454 0 0 0 9.487.976 25.18 25.18 0 0 0 15.958-4.256 13.83 13.83 0 0 0 5.408-11.614 12.501 12.501 0 0 0-3.369-8.866 37.858 37.858 0 0 0-9.93-7.27c-4.344-2.306-10.55-5.054-18.44-8.423a118.183 118.183 0 0 1-20.304-10.462c-4.796-3.19-8.977-6.727-11.88-11.703Z" fill="#FFF"/></svg>
